symbols/web/skip_next/materialsymbolsrounded/skip_next_40px.svg

<svg xmlns="http://www.w3.org/2000/svg" height="40" width="40"><path d="M29.458 30q-.625 0-1.02-.396-.396-.396-.396-.979v-17.25q0-.583.416-.979.417-.396 1-.396.584 0 .98.396.395.396.395.979v17.25q0 .583-.395.979-.396.396-.98.396Zm-18.125-1.5q-.708.5-1.437.104-.729-.396-.729-1.229v-14.75q0-.833.729-1.229.729-.396 1.437.104l10.75 7.333q.625.417.625 1.167t-.625 1.167Zm.625-8.5Zm0 4.708L18.875 20l-6.917-4.708Z"/></svg>

<svg xmlns="http://www.w3.org/2000/svg" height="40" width="40"><path d="M29.458 30Q28.833 30 28.438 29.604Q28.042 29.208 28.042 28.625V11.375Q28.042 10.792 28.458 10.396Q28.875 10 29.458 10Q30.042 10 30.438 10.396Q30.833 10.792 30.833 11.375V28.625Q30.833 29.208 30.438 29.604Q30.042 30 29.458 30ZM11.333 28.5Q10.625 29 9.896 28.604Q9.167 28.208 9.167 27.375V12.625Q9.167 11.792 9.896 11.396Q10.625 11 11.333 11.5L22.083 18.833Q22.708 19.25 22.708 20Q22.708 20.75 22.083 21.167ZM11.958 20ZM11.958 24.708 18.875 20 11.958 15.292Z"/></svg>
